X: 4332
T: AH! I HAVE SIGHED. (il Trovatore.)
%R: air, waltz, jig
B: James Kerr "Merry Melodies" v.4 p.35 #332
Z: 2016 John Chambers <jc:trillian.mit.edu>
M: 6/8
L: 1/8
K: A
|:!p!\
e6- | e^de (f2e) |\
(c3- c2d) | c3- c2z |\
e6- | e^de (f2e) |\
c3- c2z | a3 a2a |
g3 g3 | fff fgf |\
e3- e2c | e3- e2d |\
c3 fga | (a2e) (=f2e) |\
[1 A3- A2z :|\
[2 A>AA/A/ c>cc/c/ | e>ee/e/ a3 |]

%%sep 1 1 500
%%sep 1 1 500

